X: 1
T: Mammy's
R: polka
M: 2/4
L: 1/8
K: Dmaj
|:AB/A/ FA|dA fA|~e2 ge|df A2|
AB/A/ FA|dA fA|~c2 Ac|df d2:|
|:~e2 gA|df AF|~e2 cA|GF E2|
~e2 gA|df AF|~c2 Ac|df d2:|

